X: 5
T: No_103_Smoking_Song_(a).krn
N: Derived from No_103_Smoking_Song_(a).krn
%%abc-version 2.0
%%abcx-abcm2ps-target-version 5.9.1 (29 Sep 2008)
%%abc-creator hum2abc beta
%%abcx-conversion-date 2019/03/15 08:36:49
%%humdrum-veritas 3714064820
%%humdrum-veritas-data 989306319
%%linebreak <none>
%%barnumbers 0
L: 1/8
M: 3/4
%%staves {1 2}
V: 1 clef=bass
V: 2 clef=bass
K: Db
[V:1] [K:clef=bass][M:3/4]E3C CC | 
[V:2] [K:clef=bass][M:3/4]G,,2G,,2G,,2 | 
[V:1] E4C2 ||  
[V:2] G,,2G,,2G,,2 ||  
[V:1] [M:2/4]A,3E, | 
[V:2] [M:2/4]z4 | 
[V:1] E,4 | 
[V:2] z4 | 
[V:1] E,4- | 
[V:2] z4 | 
[V:1] E,4 | 
[V:2] z4 | 
[V:1] E,4 ||  
[V:2] z4 ||  
[V:1] [M:3/4]D3D DD | 
[V:2] [M:3/4]z6 | 
[V:1] D4C2 | 
[V:2] z6 | 
[V:1] A,6 ||  
[V:2] z6 ||  
[V:1] [M:2/4]F,2E,E, | 
[V:2] [M:2/4]z4 | 
[V:1] F,4 ||  
[V:2] z4 ||  
[V:1] [M:3/4]E,2D,D,- D,B,, ||  
[V:2] [M:3/4]z6 ||  
[V:1] [M:2/4]F,2E,E, | 
[V:2] [M:2/4]z4 | 
[V:1] F,4 ||  
[V:2] z4 ||  
[V:1] [M:3/4]E,2D,D,- D,B,, ||  
[V:2] [M:3/4]z6 ||  
[V:1] [M:2/4]D,4 | 
[V:2] [M:2/4]z4 | 
[V:1] B,,4 | 
[V:2] z4 | 
[V:1] B,,4 |]  
[V:2] z4 |]  



